!!!COM:	Bach, Johann Sebastian
!!!CDT:	1685/02/21/-1750/07/28/
!!!OTL@@DE:	O Ewigkeit, du Donnerwort
!!!SCT:	BWV 20/7,11
!!!PC#:	26
!!!AGN:	chorale
**harm	**kern	**kern	**kern	**kern
*	*ICvox	*ICvox	*ICvox	*ICvox
*	*Ibass	*Itenor	*Ialto	*Isoprn
*	*I"Bass	*I"Tenor	*I"Alto	*I"Soprano
*>[A,A,B]	*>[A,A,B]	*>[A,A,B]	*>[A,A,B]	*>[A,A,B]
*>norep[A,B]	*>norep[A,B]	*>norep[A,B]	*>norep[A,B]	*>norep[A,B]
*>A	*>A	*>A	*>A	*>A
*	*	*oclefC4	*oclefC3	*oclefC1
*	*clefF4	*clefGv2	*clefG2	*clefG2
*k[b-]	*k[b-]	*k[b-]	*k[b-]	*k[b-]
*F:	*F:	*F:	*F:	*F:
*M4/4	*M4/4	*M4/4	*M4/4	*M4/4
*met(c)	*met(c)	*met(c)	*met(c)	*met(c)
*MM100	*MM100	*MM100	*MM100	*MM100
I	4F	4A	4c	4f
=1	=1	=1	=1	=1
I	4F	4c	4f	4a
viio6	4G	4B-	4e	4b-
I6	4A	4c	4f	4cc
I	4F	4f	4a	4cc
=2	=2	=2	=2	=2
IV	4B-	4f	4b-	4dd
V	4c	4c	4g	4ee
I;	4F;	4c;	4a;	4ff;
I	4F	4A	4c	4f
=3	=3	=3	=3	=3
vi	4D	4d	4f	4a
ii6	4BB-	4d	4g	4b-
iii6	4AA	4c	4g	4cc
vi7	4D	4A	4f	4cc
=4	=4	=4	=4	=4
viio6	4GG	4B-	4e	4b-
I6	4AA	4c	4f	4a
V;	4C;	4c;	4e;	4g;
V6/vi	4C#	4A	4e	4a
=5	=5	=5	=5	=5
vi	4D	4A	4d	4f
vi6	4F	4A	4d	4f
ii	8GL	8GL	8dL	8b-L
viio6	8GJ	8GJ	8eJ	8b-J
vi	4D	4A	4f	4a
=6	=6	=6	=6	=6
ii65	4BB-	4d	4f	4g
V7	4C	4B-	4e	4g
I;	4FF;	4A;	4c;	4f;
*>B	*>B	*>B	*>B	*>B
I	4F	4A	4f	4cc
=7	=7	=7	=7	=7
viio	4E	4B-	4g	4g
g:ii%43	4E-	4c	4g	4a
III+	4D	4d	4f#	4b-
viio7/V	4C#	4e	4g	4b-
=8	=8	=8	=8	=8
V	4D	4A	4f#	4a
V7	4D	4c	4f#	4a
i;	4GG;	4B-;	4d;	4g;
F:I6	4AA	4c	4f	4cc
=9	=9	=9	=9	=9
IV	4BB-	4B-	4f	4dd
V	8CL	8GL	8ccL	8eeL
V7	8CJ	8GJ	8b-J	8eeJ
vi	4D	4F	4a	4ff
vi6	4F	4A	4f	4a
=10	=10	=10	=10	=10
V(54)	4C	4c	4f	4g
V7	4C	4B-	4e	4g
I;	4FF;	4A;	4c;	4f;
==	==	==	==	==
*-	*-	*-	*-	*-
!!!YOR1: 371 vierstimmige Choralges&auml;nge von Johann Sebastian Bach, 
!!!YOR2: 4th ed. by Alfred D&ouml;rffel (Leipzig: Breitkopf und H&auml;rtel, 
!!!YOR2: c.1875). 178 pp. Plate "V.A.10".  reprint: J.S. Bach, 371 Four-Part 
!!!YOR4: Chorales (New York: Associated Music Publishers, Inc., c.1940).
!!!SMS: B&H, 4th ed, Alfred D&ouml;rffel, c.1875, plate V.A.10
!!!EED:  Craig Stuart Sapp
!!!EEV:  2009/05/22
